public/img/myprofile.svg

<svg width="18" height="19" viewBox="0 0 18 19" fill="none" xmlns="http://www.w3.org/2000/svg">
<path d="M9.00018 9.59594C11.229 9.59594 13.036 7.4478 13.036 4.79795C13.036 1.12334 11.2291 0 9.00018 0C6.77119 0 4.96436 1.12334 4.96436 4.79795C4.9644 7.4478 6.77124 9.59594 9.00018 9.59594Z" fill="#8089A6"/>
<path d="M17.912 16.6582L15.8758 11.9994C15.7827 11.7862 15.6191 11.6094 15.4155 11.5017L12.2555 9.83093C12.1858 9.79415 12.1015 9.8013 12.0388 9.84947C11.1451 10.5361 10.0942 10.899 9.00004 10.899C7.90565 10.899 6.8549 10.5361 5.96116 9.84947C5.89834 9.8013 5.81396 9.79415 5.74428 9.83093L2.58455 11.5017C2.38083 11.6094 2.2174 11.7861 2.12418 11.9994L0.088054 16.6582C-0.0523243 16.9794 -0.0235536 17.3469 0.16504 17.6415C0.353546 17.936 0.672575 18.1118 1.01848 18.1118H16.9815C17.3274 18.1118 17.6465 17.9359 17.835 17.6414C18.0235 17.3469 18.0524 16.9793 17.912 16.6582Z" fill="#8089A6"/>
</svg>

<svg width="18" height="19" fill="none" xmlns="http://www.w3.org/2000/svg"><path d="M9 9.596c2.229 0 4.036-2.148 4.036-4.798C13.036 1.123 11.229 0 9 0 6.771 0 4.964 1.123 4.964 4.798c0 2.65 1.807 4.798 4.036 4.798zm8.912 7.062L15.876 12a1.031 1.031 0 0 0-.46-.497l-3.16-1.671a.201.201 0 0 0-.217.018A4.956 4.956 0 0 1 9 10.9a4.956 4.956 0 0 1-3.039-1.05.201.201 0 0 0-.217-.018l-3.16 1.67a1.031 1.031 0 0 0-.46.498L.088 16.66c-.14.32-.112.688.077.983.189.294.508.47.853.47h15.963c.346 0 .665-.176.854-.47.188-.295.217-.663.077-.984z" fill="#8089A6"/></svg>
